src/assets/icons/real-estate/flower_pot.svg

<svg width="48" height="48" viewBox="0 0 48 48" fill="none" xmlns="http://www.w3.org/2000/svg">
<rect width="48" height="48" fill="white"/>
<path fill-rule="evenodd" clip-rule="evenodd" d="M28.8603 32.7833C28.8562 32.7833 28.8531 32.7812 28.85 32.7812H18.598C18.5601 32.7812 18.5283 32.8029 18.4904 32.806L17.5728 32.8081C17.5728 32.2244 18.0444 31.75 18.6257 31.75H28.8233C29.3944 31.75 29.8608 32.2099 29.8752 32.7812L28.8603 32.7833ZM26.7309 37.9375H20.7181L19.9215 34.8438H27.5265L26.7309 37.9375ZM17.9245 21.6149C16.6952 20.3774 16.2718 18.4263 16.1263 17.2578C17.5257 17.2609 19.6622 17.5291 20.8247 18.6985C22.0581 19.9391 22.4794 22.113 22.624 23.4288C21.1989 23.2659 19.0922 22.7884 17.9245 21.6149ZM26.1753 10.9487C27.4086 9.70806 29.5707 9.28319 30.8789 9.13778C30.7179 10.5722 30.2422 12.6915 29.0755 13.865C27.8474 15.1005 25.9108 15.5274 24.7492 15.6728V15.4831C24.7748 14.0785 25.0629 12.0676 26.1753 10.9487ZM28.8233 29.6875H24.7492V28.2623L28.2841 26.4855C28.7905 26.2308 28.9956 25.611 28.7424 25.1015C28.4881 24.5921 27.872 24.3879 27.3665 24.6406L24.7492 25.9564V17.7497C26.1558 17.6002 28.77 17.0887 30.5252 15.3232C32.9723 12.8627 33 8.22719 33 8.03125C33 7.46097 32.5417 7 31.9748 7C31.781 7 27.2035 7.02888 24.7492 9.46881V8.03125C24.7492 7.46097 24.2909 7 23.724 7C23.1581 7 22.6988 7.46097 22.6988 8.03125V17.7188C22.5655 17.5507 22.4251 17.3919 22.2744 17.2403C19.778 14.7282 15.1021 15.2325 14.9094 15.2572C14.3906 15.317 14 15.7563 14 16.2812C14 16.4566 14.0277 20.6115 16.4748 23.0731C18.2515 24.8602 21.16 25.3624 22.6988 25.5048V29.6875H18.6257C16.9146 29.6875 15.5224 31.0869 15.5224 32.8081C15.5224 33.9301 16.4307 34.8438 17.5462 34.8438H17.8055L18.9312 39.2266C19.0481 39.6813 19.4561 40 19.9236 40H27.5244C27.9919 40 28.401 39.6813 28.5168 39.2266L29.6435 34.8438H29.9029C31.0173 34.8438 31.9256 33.9301 31.9256 32.8081C31.9256 31.0869 30.5344 29.6875 28.8233 29.6875Z" fill="#253238"/>
</svg>

<svg width="48" height="48" viewBox="0 0 48 48" fill="none" xmlns="http://www.w3.org/2000/svg"><path fill-rule="evenodd" clip-rule="evenodd" d="M28.86 32.783l-.01-.002H18.598c-.038 0-.07.022-.108.025l-.917.002c0-.584.471-1.058 1.053-1.058h10.197c.571 0 1.038.46 1.052 1.031l-1.015.002zm-2.13 5.154h-6.012l-.796-3.093h7.604l-.795 3.093zm-8.806-16.322c-1.229-1.238-1.652-3.189-1.798-4.357 1.4.003 3.536.271 4.699 1.44 1.233 1.241 1.654 3.415 1.799 4.73-1.425-.162-3.532-.64-4.7-1.813zm8.251-10.666c1.234-1.24 3.396-1.666 4.704-1.811-.161 1.434-.637 3.553-1.803 4.727-1.229 1.236-3.165 1.662-4.327 1.808v-.19c.026-1.405.314-3.415 1.426-4.534zm2.648 18.738H24.75v-1.425l3.535-1.777c.507-.254.712-.874.458-1.383a1.025 1.025 0 00-1.376-.461l-2.617 1.315V17.75c1.407-.15 4.021-.661 5.776-2.427C32.972 12.863 33 8.227 33 8.031 33 7.461 32.542 7 31.975 7c-.194 0-4.772.029-7.226 2.469V8.03c0-.57-.458-1.031-1.025-1.031-.566 0-1.025.461-1.025 1.031v9.688a5.694 5.694 0 00-.425-.479c-2.496-2.512-7.172-2.007-7.365-1.983-.518.06-.909.5-.909 1.024 0 .176.028 4.33 2.475 6.792 1.776 1.787 4.685 2.29 6.224 2.432v4.183h-4.073a3.115 3.115 0 00-3.104 3.12c0 1.122.909 2.036 2.024 2.036h.26l1.125 4.383c.117.454.525.773.993.773h7.6c.468 0 .877-.319.993-.773l1.127-4.383h.259a2.032 2.032 0 002.023-2.036c0-1.721-1.392-3.12-3.103-3.12z" fill="#253238"/></svg>
